!!!!SEGMENT: pl-kk--kk-i-7--072_pekiel-bartlomiej--sub-tuum-praesidium.krn
!!!cenid: 16xx:911
!!!COM: Pękiel, Bartłomiej
!!!COM-rismID: pe30105642
!!!CDT: <1633-~1670
!!!CNT: Polish
!!!OTL: Sub tuum praesidium
!!!PDT:
!!!AGN: Sacred
!!!YEC: Copyright 2022 Narodowy Instytut Fryderyka Chopina (https://polishscores.org)
!!!YEM: License CC-BY-4.0 (https://creativecommons.org/licenses/by/4.0)
!!!SMS-siglum: PL-Kk
!!!SMS-shelfmark: Kk.I.7
!!!SMS-variant:
!!!SMS-altvar:
!!!SMS-shelfwork: 072 W
!!!NIFC-rismSourceID: 300258077
!!!NIFC-rismChildID: 300258149
!!!NIFC-islandoraID: pl-kk:1956
!!!URL-pdf-islandora: https://repozytorium.nifc.pl/islandora/object/pl-kk%3A1956/datastream/PDF/view
!!!URL-scan: https://polish.musicsources.pl/pl/lokalizacje/galeria/rekopisy/6140 @EN{Scan on Polish Music Sources Website} @PL{Skany w portalu Dziedzictwo Muzyki Polskiej w otwartym dostępie}
!!!IIIF: https://repozytorium.nifc.pl/islandora/object/pl-kk%3A1956/datastream/IIIF/view
!!!ONB-nifc: UWAGA: C (skan 0065, s.122-123), A (0151, s.123), T(0228, s.118-119), B(0315, s.116). Następny utwór: Dum complerentur
!!!AIN: 1 alto 1 bass 1 soprn 1 tenor
!!!key: d:dor
**kern	**text	**mod-text	**kern	**text	**mod-text	**kern	**text	**mod-text	**kern	**text	**mod-text
*part4	*	*	*part3	*	*	*part2	*	*	*part1	*	*
*staff4	*	*	*staff3	*	*	*staff2	*	*	*staff1	*	*
*Ibass	*	*	*Itenor	*	*	*Ialto	*	*	*Isoprn	*	*
*I"[BASSVS.]	*	*	*I"[TENOR.]	*	*	*I"[ALTVS.]	*	*	*I"[CANTVS.]	*	*
*mI"Basso	*	*	*mI"Tenore II	*	*	*mI"Tenore I	*	*	*mI"Alto	*	*
*I'[B]	*	*	*I'[T]	*	*	*I'[A]	*	*	*I'[S]	*	*
*mI'B	*	*	*mI'T II	*	*	*mI'T I	*	*	*mI'A	*	*
*clefF4	*	*	*clefC4	*	*	*clefC4	*	*	*clefC3	*	*
*	*	*	*mclefGv2	*	*	*mclefGv2	*	*	*mclefG2	*	*
*k[]	*	*	*k[]	*	*	*k[]	*	*	*k[]	*	*
*d:dor	*	*	*d:dor	*	*	*d:dor	*	*	*d:dor	*	*
*M2/1	*	*	*M2/1	*	*	*M2/1	*	*	*M2/1	*	*
*met(C|)	*	*	*met(C|)	*	*	*met(C|)	*	*	*met(C|)	*	*
*mmet(c|)	*	*	*mmet(c|)	*	*	*mmet(c|)	*	*	*mmet(c|)	*	*
=1-	=1-	=1-	=1-	=1-	=1-	=1-	=1-	=1-	=1-	=1-	=1-
!!LO:TX:t=P:problem:all\right:global
*	*	*	*	*	*	*	*	*	*2\right	*	*
*xywh-#315:1051,1672,6191,982	*	*	*xywh-#228:967,2329,6318,1030	*	*	*xywh-#151:7298,452,6550,1093	*	*	*xywh-#65:783,2205,6534,1181	*	*
!LO:TX:t=P:problem=przed kluczem inicjał S	!	!	!LO:TX:t=P:problem=przed kluczem inicjał S	!	!	!LO:TX:t=P:problem=przed kluczem inicjał S	!	!	!LO:TX:t=P:problem=przed kluczem inicjał S	!	!
!LO:TX:a:t=4:mod=	!	!	!LO:TX:t=P:problem=kreska pseudotaktowa	!	!	!LO:TX:t=P:problem=kreska pseudotaktowa	!	!	!	!	!
00r	.	.	1D	Sub	Sub	1r	.	.	2.d\	Sub	Sub
!	!	!	!	!	!	!	!	!	!LO:TX:t=P:problem=kreska pseudotaktowa	!	!
.	.	.	.	.	.	.	.	.	4d\	tu-	tu-
.	.	.	1D	tu-	tu-	1.A	Sub	Sub	2.f#X\	-um	-um
!	!	!	!	!	!	!	!	!	!LO:TX:t=P:problem=kreska pseudotaktowa	!	!
.	.	.	.	.	.	.	.	.	4g\	prae-	prae-
=2-	=2-	=2-	=2-	=2-	=2-	=2-	=2-	=2-	=2-	=2-	=2-
!LO:TX:t=P:problem=kreska pseudotaktowa	!	!	!LO:TX:t=P:problem=kreska pseudotaktowa	!	!	!	!	!	!	!	!
.	.	.	1F#X	-um	-um	.	.	.	4a\	.	.
.	.	.	.	.	.	.	.	.	4g\	.	.
!	!	!	!	!	!	!LO:TX:t=P:problem=kreska pseudotaktowa	!	!	!	!	!
.	.	.	.	.	.	2A/	tu-	tu-	4f#X\	.	.
!	!	!	!	!	!	!	!	!	!LO:TX:t=P:problem=kreska pseudotaktowa	!	!
.	.	.	.	.	.	.	.	.	4e\	.	.
!	!	!	!	!	!	!LO:SIC:o=1Bn	!	!	!	!	!
.	.	.	1G	prae-	prae-	1B	.	-um	4d\	.	.
.	.	.	.	.	.	.	.	.	8e\L	.	.
!	!	!	!	!	!	!	!	!	!LO:SIC:o=8f#Xi\J	!	!
.	.	.	.	.	.	.	.	.	8f#\J	.	.
.	.	.	.	.	.	.	.	.	4g\	.	.
!	!	!	!	!	!	!	!	!	!LO:TX:t=P:problem=kreska pseudotaktowa	!	!
.	.	.	.	.	.	.	.	.	4f#\	.	.
=3-	=3-	=3-	=3-	=3-	=3-	=3-	=3-	=3-	=3-	=3-	=3-
1AA	Sub	Sub	1.A	-si-	-si-	1c#X	-um	prae-	4e\	.	.
.	.	.	.	.	.	.	.	.	8f#Xi\L	.	.
.	.	.	.	.	.	.	.	.	8g#Xi\J	.	.
.	.	.	.	.	.	.	.	.	1a	-si-	-si-
!LO:TX:t=P:problem=kreska pseudotaktowa	!	!	!	!	!	!LO:TX:t=P:problem=kreska pseudotaktowa	!	!	!	!	!
1C#X	tu-	tu-	.	.	.	[1e	prae-	.	.	.	.
!	!	!	!	!	!	!	!	!	!LO:TX:t=P:problem=kreska pseudotaktowa	!	!
.	.	.	2A/	-di-	-di-	.	.	.	2e\	-di-	-di-
=4-	=4-	=4-	=4-	=4-	=4-	=4-	=4-	=4-	=4-	=4-	=4-
!	!	!	!LO:TX:t=P:problem=kreska pseudotaktowa	!	!	!	!	!	!LO:TX:t=P:problem=kreska pseudotaktowa	!	!
1D	-um	-um	1F#X	-um	-um	4e\]	.	.	1A	-um	-um
.	.	.	.	.	.	4d\	-si-	.	.	.	.
.	.	.	.	.	.	1d	.	-si-	.	.	.
*	*	*	*lig	*	*	*	*	*	*	*	*
!LO:TX:t=P:problem=kreska pseudotaktowa	!	!	!	!	!	!	!	!	!	!	!
1E	prae-	prae-	1G	con-	con-	.	.	.	1r	.	.
*	*	*	*	*	*	*2\right	*	*	*	*	*
!	!	!	!	!	!	!LO:TX:t=P:problem=kreska pseudotaktowa	!	!	!	!	!
.	.	.	.	.	.	2c#X\	-di-	-di-	.	.	.
=5-	=5-	=5-	=5-	=5-	=5-	=5-	=5-	=5-	=5-	=5-	=5-
4F#X\	-si-	-si-	1A	.	.	2d,<\	-um	-um	2a\	con-	con-
4E\	.	.	.	.	.	.	.	.	.	.	.
!	!	!	!	!	!	!LO:TX:t=P:problem=kreska pseudotaktowa	!	!	!	!	!
4D\	.	.	.	.	.	2d\	con-	con-	4f#Xi\	-fu-	-fu-
!	!	!	!	!	!	!	!	!	!LO:TX:t=P:problem=kreska pseudotaktowa	!	!
8E\L	.	.	.	.	.	.	.	.	4e\	.	.
!LO:TX:t=P:problem=kreska pseudotaktowa	!	!	!	!	!	!	!	!	!	!	!
8F#\J	.	.	.	.	.	.	.	.	.	.	.
*	*	*	*Xlig	*	*	*	*	*	*	*	*
*2\right	*	*	*	*	*	*	*	*	*	*	*
!	!	!	!LO:SIC:o=1B	!	!	!	!	!	!	!	!
2G\	.	.	[1B	-fu-	-fu-	4d\	-fu-	-fu-	1.d	.	.
.	.	.	.	.	.	4c#y\	.	.	.	.	.
2.GG/	.	.	.	.	.	4B\	.	.	.	.	.
!	!	!	!	!	!	!LO:TX:t=P:problem=kreska pseudotaktowa	!	!	!	!	!
.	.	.	.	.	.	4A/	.	.	.	.	.
=6-	=6-	=6-	=6-	=6-	=6-	=6-	=6-	=6-	=6-	=6-	=6-
!	!	!	!LO:SIC:o=1B	!	!	!	!	!	!	!	!
.	.	.	1B]	-gi-	.	2.G/	.	.	.	.	.
4AA/	.	.	.	.	.	.	.	.	.	.	.
4BB/	.	.	.	.	.	.	.	.	2d\	-gi-	-gi-
!LO:TX:t=P:problem=kreska pseudotaktowa	!	!	!	!	!	!LO:TX:t=P:problem=kreska pseudotaktowa	!	!	!	!	!
4Cny/	.	.	.	.	.	4G/	-gi-	-gi-	.	.	.
4D\	.	.	1A	-mus	-gi-	2D,</	-mus	-mus,	2.f#Xi\	-mus	-mus,
4E\	-di-	-di-	.	.	.	.	.	.	.	.	.
!	!	!	!	!	!	!LO:TX:t=P:problem=kreska pseudotaktowa	!	!	!	!	!
4F#Xi\	-um	-um	.	.	.	2d\	con-	con-	.	.	.
!	!	!	!	!	!	!	!	!	!LO:TX:t=P:problem=kreska pseudotaktowa	!	!
4D\	con-	con-	.	.	.	.	.	.	4a\	con-	con-
=7-	=7-	=7-	=7-	=7-	=7-	=7-	=7-	=7-	=7-	=7-	=7-
!	!	!	!LO:TX:t=P:problem=kreska pseudotaktowa	!	!	!	!	!	!	!	!
2.A\	-fu-	-fu-	1A,<	.	-mus,	2.d\	-fu-	-fu-	2.e\	-fu-	-fu-
!	!	!	!	!	!	!LO:TX:t=P:problem=kreska pseudotaktowa	!	!	!	!	!
!LO:TX:t=P:problem=kreska pseudotaktowa	!	!	!	!	!	!	!	!	!	!	!
4AA/	-gi-	-gi-	.	.	.	4c#Xi\	-gi-	-gi-	4e\	-gi-	-gi-
!	!	!	!	!	!	!	!	!	!LO:TX:t=P:problem=kreska pseudotaktowa	!	!
!	!	!	!	!	!	!	!	!	!LO:MO:mod=!null:null	!	!
!	!	!	!	!	!	!	!	!	!LO:N:acc=-	!	!
!	!	!	!	!	!	!	!	!	!LO:SIC:o=1fn	!	!
1D,<	-mus	-mus,	1A	San-	san-	2d,<\	-mus	-mus,	1f	-m(us)	-m(us),
.	.	.	.	.	.	1d\	San-	san-	.	.	.
=8-	=8-	=8-	=8-	=8-	=8-	=8-	=8-	=8-	=8-	=8-	=8-
*	*	*	*lig	*	*	*	*	*	*	*	*
4AA/	San-	san-	1A	-cta	-cta	.	.	.	1.e	San-	san-
4BB/	.	.	.	.	.	.	.	.	.	.	.
!	!	!	!	!	!	!LO:TX:t=P:problem=kreska pseudotaktowa	!	!	!	!	!
4C/	.	.	.	.	.	2cny\	.	.	.	.	.
!LO:TX:t=P:problem=kreska pseudotaktowa	!	!	!	!	!	!	!	!	!	!	!
4D/	.	.	.	.	.	.	.	.	.	.	.
!	!	!	!LO:TX:t=P:problem=kreska pseudotaktowa	!	!	!LO:SIC:o=1Bni	!	!	!	!	!
4E\	.	.	1G	.	.	1B	.	.	.	.	.
4F#y\	.	.	.	.	.	.	.	.	.	.	.
!	!	!	!	!	!	!	!	!	!LO:TX:t=P:problem=kreska pseudotaktowa	!	!
2G\	.	.	.	.	.	.	.	.	2d\	-cta	-cta
*	*	*	*Xlig	*	*	*	*	*	*	*	*
*	*	*	*	*	*	*	*	*	*custos:d	*	*
!	!	!	!	!	!	!	!	!	!LO:LB:g=original	!	!
=9-	=9-	=9-	=9-	=9-	=9-	=9-	=9-	=9-	=9-	=9-	=9-
*	*	*	*	*	*	*	*	*	*xywh-#65:1121,2868,6160,1085	*	*
!	!	!	!	!	!	!LO:TX:t=P:problem=kreska pseudotaktowa	!	!	!	!	!
4D/	.	.	1F#Xi	De-	De-	1A,<	-cta	-cta	1.d	De-	De-
4C/	.	.	.	.	.	.	.	.	.	.	.
4BB/	.	.	.	.	.	.	.	.	.	.	.
!LO:TX:t=P:problem=kreska pseudotaktowa	!	!	!	!	!	!	!	!	!	!	!
4AA/	.	.	.	.	.	.	.	.	.	.	.
!	!	!	!LO:TX:t=P:problem=kreska pseudotaktowa	!	!	!	!	!	!	!	!
2GG/	.	.	1E	-i	-i	2B\	De-	De-	.	.	.
!	!	!	!	!	!	!	!	!	!LO:TX:t=P:problem=kreska pseudotaktowa	!	!
!LO:TX:t=P:problem=kreska pseudotaktowa	!	!	!	!	!	!	!	!	!	!	!
2AA/	-cta	-cta	.	.	.	2A,</	-i	-i,	2c#Xi/	.	.
*custos:D	*	*	*	*	*	*	*	*	*	*	*
!LO:LB:g=original	!	!	!	!	!	!	!	!	!	!	!
=10-	=10-	=10-	=10-	=10-	=10-	=10-	=10-	=10-	=10-	=10-	=10-
*	*	*	*lig	*	*	*	*	*	*	*	*
*xywh-#315:1129,2239,6171,1021	*	*	*	*	*	*	*	*	*	*	*
!	!	!	!	!	!	!LO:TX:t=P:problem=kreska pseudotaktowa	!	!	!	!	!
1.D	De-	De-	1F#X	ge-	Ge-	1A	San-	san-	1d	.	.
.	.	.	1E	.	.	2G,</	-cta	-cta	2e\	-i	-i
2C/	-i	-i	.	.	.	2A/	De-	De-	1A/	ge-	Ge-
*	*	*	*Xlig	*	*	*custos:B	*	*	*	*	*
!	!	!	!	!	!	!LO:LB:g=original	!	!	!	!	!
=11-	=11-	=11-	=11-	=11-	=11-	=11-	=11-	=11-	=11-	=11-	=11-
*lig	*	*	*lig	*	*	*	*	*	*	*	*
*	*	*	*	*	*	*xywh-#151:7407,1176,6202,992	*	*	*	*	*
1BB	ge-	Ge-	1D	.	.	4B\	.	.	.	.	.
.	.	.	.	.	.	4c\	.	.	.	.	.
!	!	!	!	!	!	!	!	!	!LO:TX:t=P:problem=kreska pseudotaktowa	!	!
.	.	.	.	.	.	4d\	.	.	2G#X/	.	.
!	!	!	!	!	!	!LO:TX:t=P:problem=kreska pseudotaktowa	!	!	!	!	!
.	.	.	.	.	.	4D,</	-i	-i	.	.	.
*col	*	*	*col	*	*	*	*	*	*	*	*
!	!	!	!LO:SIC:v:o=2.C/	!	!	!	!	!	!	!	!
2.AA/	.	.	2.C#/	.	.	2.E/	ge-	Ge-	2.A/	.	.
*Xlig	*	*	*Xlig	*	*	*	*	*	*	*	*
!	!	!	!LO:TX:t=P:problem=kreska pseudotaktowa	!	!	!	!	!	!	!	!
4AA/	-ni-	-ni-	4C#i/	-ni-	-ni-	4E/	-ni-	-ni-	4A/	-ni-	-ni-
*Xcol	*	*	*Xcol	*	*	*	*	*	*	*	*
*	*	*	*custos:D	*	*	*	*	*	*	*	*
!	!	!	!LO:LB:g=original	!	!	!	!	!	!	!	!
=12-	=12-	=12-	=12-	=12-	=12-	=12-	=12-	=12-	=12-	=12-	=12-
*	*	*	*xywh-#228:1096,2864,6150,1129	*	*	*	*	*	*	*	*
!LO:TX:t=P:problem=kreska pseudotaktowa	!	!	!	!	!	!	!	!	!LO:TX:t=P:problem=kreska pseudotaktowa	!	!
1D	-trix	-trix:	1D	-trix	-trix:	2F#X,</	-trix	-trix:	1A	-trix	-trix:
!	!	!	!	!	!	!LO:TX:t=P:problem=kreska pseudotaktowa	!	!	!	!	!
.	.	.	.	.	.	2A/	noſ-	nos-	.	.	.
2r	.	.	1F#X	noſ-	nos-	2D,</	-tras	-tras	0r	.	.
!LO:TX:t=P:problem=kreska pseudotaktowa	!	!	!	!	!	!	!	!	!	!	!
2D/	noſ-	nos-	.	.	.	4d\	de-	de-	.	.	.
!	!	!	!	!	!	!LO:TX:t=P:problem=kreska pseudotaktowa	!	!	!	!	!
.	.	.	.	.	.	4c\	.	.	.	.	.
=13-	=13-	=13-	=13-	=13-	=13-	=13-	=13-	=13-	=13-	=13-	=13-
!	!	!	!LO:TX:t=P:problem=kreska pseudotaktowa	!	!	!	!	!	!	!	!
2GG/	-tras	-tras	1G	-tras	-tras	4B\	.	.	.	.	.
.	.	.	.	.	.	4A\	.	.	.	.	.
1G	de-	de-	.	.	.	4B\	.	.	.	.	.
!	!	!	!	!	!	!LO:TX:t=P:problem=kreska pseudotaktowa	!	!	!	!	!
.	.	.	.	.	.	4c\	.	.	.	.	.
.	.	.	1A	de-	de-	2.d\	.	.	2r	.	.
!LO:TX:t=P:problem=kreska pseudotaktowa	!	!	!	!	!	!	!	!	!	!	!
!	!	!	!	!	!	!	!	!	!LO:TX:t=P:problem=kreska pseudotaktowa	!	!
2F#Xi\	-pre-	-pre-	.	.	.	.	.	.	2d\	noſ-	nos-
!	!	!	!	!	!	!LO:TX:t=P:problem=kreska pseudotaktowa	!	!	!	!	!
.	.	.	.	.	.	4c\	-pre-	-pre-	.	.	.
=14-	=14-	=14-	=14-	=14-	=14-	=14-	=14-	=14-	=14-	=14-	=14-
4G\	-ca-	-ca-	1G	-pre-	-pre-	4B\	-ca-	-ca-	2Gny/	-tras	-tras
4Fny\	.	.	.	.	.	8c\L	.	.	.	.	.
.	.	.	.	.	.	8d\J	.	.	.	.	.
4E\	.	.	.	.	.	1e	.	.	1gny	de-	de-
!LO:TX:t=P:problem=kreska pseudotaktowa	!	!	!	!	!	!	!	!	!	!	!
4D/	.	.	.	.	.	.	.	.	.	.	.
*	*	*	*lig	*	*	*	*	*	*	*	*
2C/	.	.	1A	-ca-	-ca-	.	.	.	.	.	.
!LO:TX:t=P:problem=kreska pseudotaktowa	!	!	!	!	!	!LO:TX:t=P:problem=kreska pseudotaktowa	!	!	!LO:TX:t=P:problem=kreska pseudotaktowa	!	!
2D/	-ti-	-ti-	.	.	.	2d\	-ti-	-ti-	2f#Xi\	-pre-	-pre-
=15-	=15-	=15-	=15-	=15-	=15-	=15-	=15-	=15-	=15-	=15-	=15-
*	*	*	*	*	*	*	*	*	*lig	*	*
2G\	-o-	-o-	1B	.	.	2.d\	-o-	-o-	1g	-ca-	-ca-
2.GG/	.	.	.	.	.	.	.	.	.	.	.
!	!	!	!	!	!	!LO:TX:t=P:problem=kreska pseudotaktowa	!	!	!	!	!
.	.	.	.	.	.	4c\	.	.	.	.	.
*	*	*	*Xlig	*	*	*	*	*	*col	*	*
.	.	.	1B	-ti-	-ti-	4B\	.	.	2.d\	.	.
4AA/	.	.	.	.	.	4c\	.	.	.	.	.
4BB/	.	.	.	.	.	1d\	.	.	.	.	.
*	*	*	*	*	*	*	*	*	*Xlig	*	*
!LO:TX:t=P:problem=kreska pseudotaktowa	!	!	!	!	!	!	!	!	!LO:TX:t=P:problem=kreska pseudotaktowa	!	!
4C/	.	.	.	.	.	.	.	.	4e\	.	.
*	*	*	*	*	*	*	*	*	*Xcol	*	*
=16-	=16-	=16-	=16-	=16-	=16-	=16-	=16-	=16-	=16-	=16-	=16-
2D/	.	.	1A	-o-	-o-	.	.	.	4f#X\	.	.
.	.	.	.	.	.	.	.	.	4d\	.	.
!	!	!	!	!	!	!LO:TX:t=P:problem=kreska pseudotaktowa	!	!	!	!	!
2C/	.	.	.	.	.	2e\	.	.	1g	-ti-	-ti-
!LO:TX:t=P:problem=kreska pseudotaktowa	!	!	!LO:TX:t=P:problem=kreska pseudotaktowa	!	!	!	!	!	!	!	!
1D	.	.	1A	-nes	-nes	1d	.	.	.	.	.
!	!	!	!	!	!	!	!	!	!LO:TX:t=P:problem=kreska pseudotaktowa	!	!
!	!	!	!	!	!	!	!	!	!LO:SIC:o=2f#Xi\	!	!
.	.	.	.	.	.	.	.	.	2f#\	-o-	-o-
=17-	=17-	=17-	=17-	=17-	=17-	=17-	=17-	=17-	=17-	=17-	=17-
!	!	!	!LO:TX:t=P:problem=kreska pseudotaktowa	!	!	!LO:TX:t=P:problem=kreska pseudotaktowa	!	!	!	!	!
2GG,</	-nes	-nes	1B	ne	ne	1d,	-nes	-nes	1g	-nes	-nes
1G	ne	ne	.	.	.	.	.	.	.	.	.
!	!	!	!	!	!	!	!	!	!LO:TX:t=P:problem=kreska pseudotaktowa	!	!
.	.	.	1A	de-	de-	1d	ne	ne	1a	ne	ne
!LO:TX:t=P:problem=kreska pseudotaktowa	!	!	!	!	!	!	!	!	!	!	!
2F#Xi\	de-	de-	.	.	.	.	.	.	.	.	.
=18-	=18-	=18-	=18-	=18-	=18-	=18-	=18-	=18-	=18-	=18-	=18-
!	!	!	!	!	!	!LO:TX:t=P:problem=kreska pseudotaktowa	!	!	!	!	!
4G\	-ſpi-	-spi-	1G	-spi-	-spi-	1B	de-	de-	2d\	de-	de-
4Fny\	.	.	.	.	.	.	.	.	.	.	.
4E\	.	.	.	.	.	.	.	.	1g	-spi-	-spi-
!LO:TX:t=P:problem=kreska pseudotaktowa	!	!	!	!	!	!	!	!	!	!	!
4D/	.	.	.	.	.	.	.	.	.	.	.
4C/	.	.	1E	-ci-	-ci-	4c\	-spi-	-spi-	.	.	.
4D/	.	.	.	.	.	4B\	.	.	.	.	.
!	!	!	!	!	!	!	!	!	!LO:TX:t=P:problem=kreska pseudotaktowa	!	!
2E\	.	.	.	.	.	4A/	.	.	2e\	-ci-	-ci-
!	!	!	!	!	!	!LO:TX:t=P:problem=kreska pseudotaktowa	!	!	!	!	!
.	.	.	.	.	.	4G/	.	.	.	.	.
=19-	=19-	=19-	=19-	=19-	=19-	=19-	=19-	=19-	=19-	=19-	=19-
*	*	*	*lig	*	*	*	*	*	*	*	*
2.D/	-ci-	.	1F#X	-as	-as	2.d\	.	.	2A/	-as	-as
.	.	.	.	.	.	.	.	.	2d\	in	in
!LO:TX:t=P:problem=kreska pseudotaktowa	!	!	!	!	!	!	!	!	!	!	!
4D/	.	-ci-	.	.	.	4d\	-ci-	-ci-	.	.	.
*custos:GG	*	*	*	*	*	*	*	*	*	*	*
*xywh-#315:950,2983,6429,922	*	*	*	*	*	*	*	*	*	*	*
!LO:LB:g=original	!	!	!LO:TX:t=P:problem=kreska pseudotaktowa	!	!	!LO:TX:t=P:problem=kreska pseudotaktowa	!	!	!	!	!
2GG/	-as	-as	1G	.	.	1d	-as	-as	1B	ne-	ne-
1G	in	in	.	.	.	.	.	.	.	.	.
*	*	*	*Xlig	*	*	*custos:d	*	*	*	*	*
!	!	!	!	!	!	!LO:LB:g=original	!	!	!	!	!
=20-	=20-	=20-	=20-	=20-	=20-	=20-	=20-	=20-	=20-	=20-	=20-
*	*	*	*	*	*	*xywh-#151:7317,1827,6292,951	*	*	*	*	*
!	!	!	!LO:TX:t=P:problem=kreska pseudotaktowa	!	!	!	!	!	!	!	!
.	.	.	1A	in	in	2r	.	.	4d\	-ceſ-	-ces-
.	.	.	.	.	.	.	.	.	4e\	.	.
!LO:TX:t=P:problem=kreska pseudotaktowa	!	!	!	!	!	!	!	!	!	!	!
2F#X\	ne-	ne-	.	.	.	1d	in	in	4f#Xi\	.	-[si]-
!	!	!	!	!	!	!	!	!	!LO:TX:t=P:problem=kreska pseudotaktowa	!	!
.	.	.	.	.	.	.	.	.	4d\	.	.
*	*	*	*	*	*	*	*	*	*custos:e	*	*
*	*	*	*	*	*	*	*	*	*xywh-#65:1133,3543,6148,1205	*	*
!	!	!	!	!	!	!	!	!	!LO:LB:g=original	!	!
1E	-ceſ-	-ces-	1G	ne-	ne-	.	.	.	2.e\	-ta-	-ta-
!	!	!	!	!	!	!LO:TX:t=P:problem=kreska pseudotaktowa	!	!	!	!	!
.	.	.	.	.	.	2c#Xi\	ne-	ne-	.	.	.
.	.	.	.	.	.	.	.	.	4e\	-ti-	-ti-
=21-	=21-	=21-	=21-	=21-	=21-	=21-	=21-	=21-	=21-	=21-	=21-
!	!	!	!	!	!	!	!	!	!LO:TX:t=P:problem=kreska pseudotaktowa	!	!
2D/	si-	si-	1F#X	-ceſ-	-ces-	1d	-ceſ-	-ces-	1A	-bus	-bus
2.D/	-ta-	-ta-	.	.	.	.	.	.	.	.	.
.	.	.	1E	-si-	-si-	2G/	-si-	-si-	1.e	no-	nos-
4D/	-ti-	-ti-	.	.	.	.	.	.	.	.	.
!LO:TX:t=P:problem=kreska pseudotaktowa	!	!	!	!	!	!	!	!	!	!	!
2C#X/	-bus	-bus	.	.	.	2.A/	-ta-	-ta-	.	.	.
=22-	=22-	=22-	=22-	=22-	=22-	=22-	=22-	=22-	=22-	=22-	=22-
4D/	no-	nos-	1F#X	-ta-	-ta-	.	.	.	.	.	.
4Cny/	.	.	.	.	.	4A/	-ti-	-ti-	.	.	.
4BB/	.	.	.	.	.	1B	-bus	-bus	1d	.	.
!LO:TX:t=P:problem=kreska pseudotaktowa	!	!	!	!	!	!	!	!	!	!	!
4AA/	.	.	.	.	.	.	.	.	.	.	.
2GG/	.	.	1E	-ti-	-ti-	.	.	.	.	.	.
!	!	!	!	!	!	!	!	!	!LO:TX:t=P:problem=kreska pseudotaktowa	!	!
2AA/	.	.	.	.	.	1A/	no-	nos-	2c#X/	.	.
=23-	=23-	=23-	=23-	=23-	=23-	=23-	=23-	=23-	=23-	=23-	=23-
*lig	*	*	*	*	*	*	*	*	*	*	*
1BB	.	.	2D,</	-bus	-bus	.	.	.	2.d\	.	.
!	!	!	!	!	!	!LO:TX:t=P:problem=kreska pseudotaktowa	!	!	!	!	!
.	.	.	1D	no-	no-	2G#Xi/	.	.	.	.	.
.	.	.	.	.	.	.	.	.	4e\	.	.
1AA	.	.	.	.	.	1.A,<	-ſtris	-tris:	2fny\	.	.
*Xlig	*	*	*	*	*	*	*	*	*	*	*
!	!	!	!LO:TX:t=P:problem=kreska pseudotaktowa	!	!	!	!	!	!	!	!
.	.	.	2C#X/	.	.	.	.	.	2e\	.	.
*	*	*	*custos:D	*	*	*	*	*	*	*	*
!	!	!	!LO:LB:g=original	!	!	!	!	!	!	!	!
=24-	=24-	=24-	=24-	=24-	=24-	=24-	=24-	=24-	=24-	=24-	=24-
*	*	*	*xywh-#228:1076,3557,6200,1188	*	*	*	*	*	*	*	*
!LO:TX:t=P:problem=kreska pseudotaktowa	!	!	!LO:TX:t=P:problem=kreska pseudotaktowa	!	!	!	!	!	!LO:TX:t=P:problem=kreska pseudotaktowa	!	!
1D	-ſtris	-tris:	1D,<	-ſtris	-stris:	.	.	.	1f#X	-ſtris	-tris:
!	!	!	!	!	!	!LO:TX:t=P:problem=kreska pseudotaktowa	!	!	!	!	!
.	.	.	.	.	.	2B\	ſed	sed	.	.	.
!	!	!	!LO:TX:t=P:problem=kreska pseudotaktowa	!	!	!	!	!	!	!	!
1r	.	.	1E	Sed	sed	2Gny/	à	a	2r	.	.
!	!	!	!	!	!	!LO:TX:t=P:problem=kreska pseudotaktowa	!	!	!	!	!
.	.	.	.	.	.	2B\	pe-	pe-	2g\	sed	sed
=25-	=25-	=25-	=25-	=25-	=25-	=25-	=25-	=25-	=25-	=25-	=25-
!	!	!	!LO:TX:t=P:problem=kreska pseudotaktowa	!	!	!	!	!	!	!	!
2r	.	.	1Cny	à	a	1.cny	-ri-	-ri-	1e	à	a
!LO:TX:t=P:problem=kreska pseudotaktowa	!	!	!	!	!	!	!	!	!	!	!
2E\	ſed	sed	.	.	.	.	.	.	.	.	.
!	!	!	!	!	!	!	!	!	!LO:TX:t=P:problem=kreska pseudotaktowa	!	!
1C	a	a	1E	pe-	pe-	.	.	.	1g	pe-	pe-
.	.	.	.	.	.	2c\	-cu-	-cu-	.	.	.
=26-	=26-	=26-	=26-	=26-	=26-	=26-	=26-	=26-	=26-	=26-	=26-
*	*	*	*lig	*	*	*	*	*	*	*	*
!	!	!	!	!	!	!LO:TX:t=P:problem=kreska pseudotaktowa	!	!	!	!	!
1E	pe-	pe-	1G	-ri-	-ri-	1B	-lis	-lis	4g\	-ri-	-ri-
.	.	.	.	.	.	.	.	.	4f#Xi\	.	.
.	.	.	.	.	.	.	.	.	1e	.	.
*	*	*	*col	*	*	*	*	*	*	*	*
2.BB/	-ri-	-ri-	2.F#Xi/	.	.	1B	cun-	cun-	.	.	.
!	!	!	!	!	!	!	!	!	!LO:TX:t=P:problem=kreska pseudotaktowa	!	!
.	.	.	.	.	.	.	.	.	2d#X\	-cu-	-cu-
*	*	*	*Xlig	*	*	*	*	*	*	*	*
!LO:TX:t=P:problem=kreska pseudotaktowa	!	!	!	!	!	!	!	!	!	!	!
4BB/	-cu-	-cu-	4F#/	-cu-	-cu-	.	.	.	.	.	.
*	*	*	*Xcol	*	*	*	*	*	*	*	*
=27-	=27-	=27-	=27-	=27-	=27-	=27-	=27-	=27-	=27-	=27-	=27-
!	!	!	!LO:TX:t=P:problem=kreska pseudotaktowa	!	!	!LO:TX:t=P:problem=kreska pseudotaktowa	!	!	!	!	!
2C/	-lis	-lis	1E	-lis	-lis	1G	-ctis	-ctis	1e	-lis	-lis
4C/	cun-	cun-	.	.	.	.	.	.	.	.	.
!LO:TX:t=P:problem=kreska pseudotaktowa	!	!	!	!	!	!	!	!	!	!	!
4D/	.	.	.	.	.	.	.	.	.	.	.
*	*	*	*lig	*	*	*	*	*	*	*	*
!	!	!	!	!	!	!LO:TX:a:t=5.:mod=	!	!	!	!	!
4E\	.	.	1G	cun-	cun-	00r	.	.	2cny/	cun-	cun-
4F#y\	.	.	.	.	.	.	.	.	.	.	.
1G\	.	.	.	.	.	.	.	.	4B/	.	.
!	!	!	!	!	!	!	!	!	!LO:TX:t=P:problem=kreska pseudotaktowa	!	!
.	.	.	.	.	.	.	.	.	4c/	.	.
=28-	=28-	=28-	=28-	=28-	=28-	=28-	=28-	=28-	=28-	=28-	=28-
.	.	.	1A	.	.	.	.	.	0dny	.	.
4F#Xi\	.	.	.	.	.	.	.	.	.	.	.
!LO:TX:t=P:problem=kreska pseudotaktowa	!	!	!	!	!	!	!	!	!	!	!
4E\	.	.	.	.	.	.	.	.	.	.	.
*	*	*	*Xlig	*	*	*	*	*	*	*	*
!	!	!	!LO:TX:t=P:problem=kreska pseudotaktowa	!	!	!	!	!	!	!	!
1F#y	.	.	1A	-ctis	-ctis	.	.	.	.	.	.
=29-	=29-	=29-	=29-	=29-	=29-	=29-	=29-	=29-	=29-	=29-	=29-
!LO:TX:t=P:problem=kreska pseudotaktowa	!	!	!	!	!	!	!	!	!	!	!
1G	-ctis	-ctis	1B	li-	li-	.	.	.	2d\	-ctis	-ctis
.	.	.	.	.	.	.	.	.	2.g\	li-	li-
*custos:D	*	*	*	*	*	*	*	*	*	*	*
*xywh-#315:1228,3549,5992,1041	*	*	*	*	*	*	*	*	*	*	*
!LO:LB:g=original	!	!	!	!	!	!LO:TX:t=P:problem=kreska pseudotaktowa	!	!	!	!	!
1.D	li-	li-	1A	-be-	-be-	1r	.	.	.	.	.
.	.	.	.	.	.	.	.	.	4g\	-be-	-be-
.	.	.	.	.	.	.	.	.	4f#Xi\	-ra	.
!	!	!	!	!	!	!	!	!	!LO:TX:t=P:problem=kreska pseudotaktowa	!	!
.	.	.	.	.	.	.	.	.	4g\	.	.
=30-	=30-	=30-	=30-	=30-	=30-	=30-	=30-	=30-	=30-	=30-	=30-
!	!	!	!LO:TX:t=P:problem=kreska pseudotaktowa	!	!	!	!	!	!	!	!
.	.	.	1F#X	-ra	-ra	2r	.	.	1a	.	-ra,
2D/	-be-	-be-	.	.	.	1d	Li-	li-	.	.	.
!LO:TX:t=P:problem=kreska pseudotaktowa	!	!	!LO:TX:t=P:problem=kreska pseudotaktowa	!	!	!	!	!	!	!	!
1E	-ra	-ra	1G	nos	nos	.	.	.	2g\	li-	li-
!	!	!	!	!	!	!LO:TX:t=P:problem=kreska pseudotaktowa	!	!	!	!	!
.	.	.	.	.	.	2c#Xi\	-be-	-be-	2e\	-be-	-be-
=31-	=31-	=31-	=31-	=31-	=31-	=31-	=31-	=31-	=31-	=31-	=31-
*	*	*	*lig	*	*	*	*	*	*	*	*
!LO:TX:t=P:problem=kreska pseudotaktowa	!	!	!	!	!	!	!	!	!LO:TX:t=P:problem=kreska pseudotaktowa	!	!
1D	nos	nos,	1A	ſem-	sem-	1.d	-ra	-ra	1f#X	-ra	-ra
*	*ij	*ij	*	*	*	*	*	*	*custos:g	*	*
*	*	*	*	*	*	*	*	*	*xywh-#65:7197,435,6112,1109	*	*
!	!	!	!	!	!	!	!	!	!LO:PB:g=original	!	!
2.BB/	li-	li-	1B	.	.	.	.	.	2g\	nos	nos
!	!	!	!	!	!	!LO:TX:t=P:problem=kreska pseudotaktowa	!	!	!	!	!
.	.	.	.	.	.	2d\	nos	nos	1g\	ſem-	sem-
4BB/	-be-	-be-	.	.	.	.	.	.	.	.	.
*	*	*	*Xlig	*	*	*	*	*	*	*	*
=32-	=32-	=32-	=32-	=32-	=32-	=32-	=32-	=32-	=32-	=32-	=32-
*	*	*	*lig	*	*	*	*	*	*	*	*
2C/	-ra	-ra	1A	.	.	4e\	.	.	.	.	.
.	.	.	.	.	.	4d\	.	.	.	.	.
!LO:TX:t=P:problem=kreska pseudotaktowa	!	!	!	!	!	!	!	!	!LO:TX:t=P:problem=kreska pseudotaktowa	!	!
2D/	nos	nos	.	.	.	1d	ſem-	sem-	2f#Xi\	.	.
*lig	*Xij	*Xij	*	*	*	*	*	*	*	*	*
1E	ſem-	sem-	1G	.	.	.	.	.	1e	-per	.
!	!	!	!	!	!	!LO:TX:t=P:problem=kreska pseudotaktowa	!	!	!	!	!
.	.	.	.	.	.	2c#Xi\	.	.	.	.	.
*	*	*	*Xlig	*	*	*	*	*	*	*	*
=33-	=33-	=33-	=33-	=33-	=33-	=33-	=33-	=33-	=33-	=33-	=33-
*col	*	*	*lig	*	*	*	*	*	*	*	*
!	!	!	!	!	!	!LO:TX:t=P:problem=kreska pseudotaktowa	!	!	!LO:TX:t=P:problem=kreska pseudotaktowa	!	!
2.D/	.	.	1F#X	.	.	1d	-per	-per,	1A	.	-per,
*Xlig	*	*	*	*	*	*	*	*	*	*	*
!LO:TX:t=P:problem=kreska pseudotaktowa	!	!	!	!	!	!	!	!	!	!	!
4C/	.	.	.	.	.	.	.	.	.	.	.
*Xcol	*	*	*	*	*	*custos:d	*	*	*	*	*
*	*	*	*	*	*	*xywh-#151:7387,2298,6493,1072	*	*	*	*	*
!	!	!	!	!	!	!LO:LB:g=original	!	!	!	!	!
4BB/	.	.	1G	.	.	1.d	ſem-	sem-	1B	ſem-	sem-
4GG/	.	.	.	.	.	.	.	.	.	.	.
1G\	.	.	.	.	.	.	.	.	.	.	.
*	*	*	*Xlig	*	*	*	*	*	*	*	*
=34-	=34-	=34-	=34-	=34-	=34-	=34-	=34-	=34-	=34-	=34-	=34-
.	.	.	1A	-per	.	.	.	.	1d	-per	.
!	!	!	!	!	!	!LO:TX:t=P:problem=kreska pseudotaktowa	!	!	!	!	!
2F#Xi\	.	.	.	.	.	2D/	.	.	.	.	.
!LO:TX:t=P:problem=kreska pseudotaktowa	!	!	!LO:TX:t=P:problem=kreska pseudotaktowa	!	!	!	!	!	!	!	!
1G	-per	-per,	1G	.	-per,	1G	-per	-per,	1B	.	-per,
=35-	=35-	=35-	=35-	=35-	=35-	=35-	=35-	=35-	=35-	=35-	=35-
!	!	!	!	!	!	!LO:TX:t=P:problem=kreska pseudotaktowa	!	!	!	!	!
1.C	Vir-	Vir-	1E	Vir-	Vir-	0G	Vir-	Vir-	0c	Vir-	Vir-
!	!	!	!LO:TX:t=P:problem=kreska pseudotaktowa	!	!	!	!	!	!	!	!
.	.	.	1D	-go	-go	.	.	.	.	.	.
!LO:TX:t=P:problem=kreska pseudotaktowa	!	!	!	!	!	!	!	!	!	!	!
2BB/	-go	-go	.	.	.	.	.	.	.	.	.
=36-	=36-	=36-	=36-	=36-	=36-	=36-	=36-	=36-	=36-	=36-	=36-
!	!	!	!	!	!	!	!	!	!LO:TX:t=P:problem=kreska pseudotaktowa	!	!
1C	glo-	glo-	1E	glo-	glo-	2G/	-go	-go	1c	-go	-go
.	.	.	.	.	.	2.A/	glo-	glo-	.	.	.
!LO:TX:t=P:problem=kreska pseudotaktowa	!	!	!	!	!	!	!	!	!	!	!
1D	-ri-	-ri-	1F#X	-ri-	-ri-	.	.	.	2r	.	.
.	.	.	.	.	.	4A/	-ri-	-ri-	.	.	.
!	!	!	!	!	!	!LO:SIC:o=1Bn\	!	!	!	!	!
.	.	.	.	.	.	1B	-o-	-o-	2d\	glo-	glo-
=37-	=37-	=37-	=37-	=37-	=37-	=37-	=37-	=37-	=37-	=37-	=37-
2.E\	-o-	-o-	1G	-o-	-o-	.	.	.	2B/	-ri-	-ri-
.	.	.	.	.	.	1G	-ſa	-sa	2.e\	-o-	-o-
4D/	.	.	.	.	.	.	.	.	.	.	.
*	*	*	*custos:E	*	*	*	*	*	*	*	*
!	!	!	!LO:PB:g=original	!	!	!	!	!	!	!	!
!	!	!	!LO:TX:t=P:problem=kreska pseudotaktowa	!	!	!	!	!	!	!	!
*	*	*	*xywh-#228:7123,403,6269,1069	*	*	*	*	*	*	*	*
2.C/	.	.	1E	-ſa	-sa	.	.	.	.	.	.
.	.	.	.	.	.	.	.	.	4fny\	.	.
!	!	!	!	!	!	!LO:TX:t=P:problem=kreska pseudotaktowa	!	!	!	!	!
.	.	.	.	.	.	2G/	et	et	4e\	.	.
!LO:TX:t=P:problem=kreska pseudotaktowa	!	!	!	!	!	!	!	!	!LO:TX:t=P:problem=kreska pseudotaktowa	!	!
4BB/	.	.	.	.	.	.	.	.	4d\	.	.
=38-	=38-	=38-	=38-	=38-	=38-	=38-	=38-	=38-	=38-	=38-	=38-
2AA/	.	.	1E	et	et	2A/	be-	be-	4c/	.	.
.	.	.	.	.	.	.	.	.	4d\	.	.
2GG/	.	.	.	.	.	2B\	-ne-	-ne-	2.e\	.	.
!	!	!	!	!	!	!LO:TX:t=P:problem=kreska pseudotaktowa	!	!	!	!	!
2.FF/	.	.	1Fny	Be-	be-	1A	-dic-	-dic-	.	.	.
.	.	.	.	.	.	.	.	.	4d\	.	.
.	.	.	.	.	.	.	.	.	1d\	.	.
!LO:TX:t=P:problem=kreska pseudotaktowa	!	!	!	!	!	!	!	!	!	!	!
4GG/	.	.	.	.	.	.	.	.	.	.	.
=39-	=39-	=39-	=39-	=39-	=39-	=39-	=39-	=39-	=39-	=39-	=39-
1AA	.	.	1E	-ne-	-ne-	2A,</	-ta	-ta,	.	.	.
!	!	!	!	!	!	!	!	!	!LO:TX:t=P:problem=kreska pseudotaktowa	!	!
.	.	.	.	.	.	1A	et	et	2c#Xi/	.	.
2BB-X/	-ſa	-sa	00D	-di-	-di-	.	.	.	2d,<\	-ſa	-sa
!LO:TX:t=P:problem=kreska pseudotaktowa	!	!	!	!	!	!	!	!	!	!	!
2BB-y/	et	et	.	.	.	1G/	Be-	be-	2d\	et	et
=40-	=40-	=40-	=40-	=40-	=40-	=40-	=40-	=40-	=40-	=40-	=40-
2GG/	be-	be-	.	.	.	.	.	.	2B-X/	be-	be-
!	!	!	!	!	!	!LO:TX:t=P:problem=kreska pseudotaktowa	!	!	!LO:TX:t=P:problem=kreska pseudotaktowa	!	!
2FF#Xi/	-ne-	-ne-	.	.	.	2d\	.	.	2A/	-ne-	-ne-
0GG	-di-	-di-	.	.	.	2B-X\	.	.	2G/	-di-	-di-
!	!	!	!	!	!	!LO:TX:t=P:problem=kreska pseudotaktowa	!	!	!	!	!
.	.	.	.	.	.	2A/	-ne-	-ne-	2A/	.	.
=41-	=41-	=41-	=41-	=41-	=41-	=41-	=41-	=41-	=41-	=41-	=41-
!LO:TX:t=P:problem=kreska pseudotaktowa	!	!	!	!	!	!	!	!	!	!	!
.	.	.	.	.	.	1G	-di-	-di-	1B-X	.	.
00D;<	-cta	-cta.	00D	-cta.	-cta.	00F#Xl	-cta.	-cta.	00A	-cta.	-cta.
!LO:PB:g=original	!	!	!LO:LB:g=original	!	!	!LO:LB:g=original	!	!	!LO:LB:g=original	!	!
=||	=||	=||	=||	=||	=||	=||	=||	=||	=||	=||	=||
*-	*-	*-	*-	*-	*-	*-	*-	*-	*-	*-	*-
!!!system-decoration: [(s1,s2,s3,s4)]
!!!RDF**kern: < = below
!!!RDF**kern: > = above
!!LO:MO:ori
!!!RDF**kern: i = editorial accidental
!!!RDF**kern: l = terminal long
!!LO:MO:end
!!!filter-modern: sic -sq | shed -e "s/LO:DY:(a|b|rj)/LO:dy:$1/L" | autostem -r | tie -s | shed -e "s/-//B" | shed -k -e "s/[<>]//g" | shed -e "s/^custos:/Xcustos:/I" | shed -e "s/TX(.*):t=P:/tx$1:t=P:/LG" | shed -e "s/^(\d+[\/\\]right)/$1yy/I; s/^(\d+[\/\\]left)/$1yy/I" | humtr -p | modori -m
!!!ENC: Tomasz Grochalski
!!!END: 2021-03-03
!!!EED: Marta Chmielewska
!!!EEV: 2021-03-18
!!!EED: Katarzyna Serwa
!!!EEV: 2022-08-14
!!!ENC-iiif: Bartosz Żurakowski
!!!END-iiif: 2022-09-22
